X:1
T:Title
%%score ( 1 2 3 ) { 4 | ( 5 6 ) }
L:1/8
Q:1/4=98
M:3/4
K:G
V:1 treble nm="Grand Piano, Soprano"
V:2 treble 
V:3 treble 
V:4 bass nm="Choir Pad, Ischgl, 87.87 D"
V:5 bass 
V:6 bass 
V:1
 D>D [DG]2 [DG]2 | [DB]>[DG] [DA]2 [DA]2 | z2 d4 | [Ec]>[DA] [B,G]4 | D>D [DG]2 [DG]2 | %5
w: By~Tyrolean~Melody * * *|||||
 [DB]>[DG] [DA]2 [DA]2 | z2 d4 | [Gc]>[FA] G4 | [DB]>[Dc] [Dd]2 [DB]2 | [Dd]>[Dd] [Ec]2 [DA]2 | %10
w: |||||
 z2 B4 | [DB]>[EB] [FA]4 | D>D [DG]2 [DG]2 | [EA]>[DA] [DB]2 [DB]2 | z2 d4 | [Ec]>[FA] G4- | %16
w: ||||||
 G4 z2 |] %17
w: |
V:2
 x6 | x6 | [Ec]>[Ee] G2 z B | x6 | x6 | x6 | [Ec]>[Ee] G2 z B | x6 | x6 | x6 | [Dc]>[Dc] D2 GG | %11
 x6 | x6 | x6 | [Ec]>[Fe] G2 z B | x6 | x6 |] %17
V:3
 x6 | x6 | z2 z2 G2 | x6 | x6 | x6 | z2 z2 G2 | x6 | x6 | x6 | x6 | x6 | x6 | x6 | z2 z2 G2 | x6 | %16
 x6 |] %17
V:4
 D,>D, B,2 B,2 | G,>G, F,2 F,2 | G,>G, .G,4 | G,>F, G,4 | D,>D, B,2 B,2 | G,>A, F,2 F,2 | %6
 G,>G, .G,4 | A,>A, B,4 | G,>A, B,2 G,2 | G,>G, G,2 F,2 | F,>F, G,2 D2 | B,>^C D4 | D,>D, B,2 B,2 | %13
 G,>F, G,2 G,2 | G,>A, B,2 B,2 | A,>A, B,4- | B,4 z2 |] %17
V:5
 z2 G,,2 G,,2 | G,,>B,, D,2 D,2 | z2 z2 E,2 | A,,>D, G,,4 | z2 G,,2 G,,2 | G,,>B,, D,2 D,2 | %6
 z2 z2 E,2 | A,,>D, G,,4 | z z/ G,/ G,2 z2 | B,,>B,, A,,2 D,2 | D,>D, z2 B,2 | G,>G, D,4 | %12
 z2 G,,2 G,,2 | C,>D, z2 z2 | C,>C, B,,2 E,2 | A,,>D, G,,4- | G,,4 z2 |] %17
V:6
 x6 | x6 | C,>C, B,,2 z G, | x6 | x6 | x6 | C,>C, B,,2 z G, | x6 | x6 | x6 | x6 | x6 | x6 | x6 | %14
 x6 | x6 | x6 |] %17

